X: 11855
T: Emerald Isle
R: jig
M: 6/8
K: Gminor
d/e/|f>ed e>fg|f3z2e|dBF FDF|B3z2 d/e/|f>ed e>fg|f3z2e|
d>ef ecA|(B3B2)G|G>AB c/d/e^f|g3z2a|b>ag d<g^f|(g3 g2)a|
b>ag fed|e g3zg|f>gf e>cA|(B3B2)d/e/|fgf fdB|(b3b2)a/g/
fgf fdB|e3z2c|def fg_a|[gB]3 B2[gd]/[ae]/|bfd ecA|(B3B2||)

